X:36
T:Return to Toronto
R:jig
C:Paul S. Cranford
O:Cape Breton Island
S:http://www.cranfordpub.com
D:currently unrecorded
B:currently unpublished in book form
Z:psc
H:                                                        copyrights Cranford Publications, SOCAN
L:1/8
Q:300
M:6/8
K:D
fAA f2 e|dcd ede|fAA gfg|{g}a2 A age|
fAA f2 e|dcd efg|fAa gfd|[1e2 A cde:|[2e2 A edc||
||dcB cAA|GBB ABc|d2 f agf|e2 A edc|
dcB cAA|GAB cde|def eAc|~B3 B2 c|
dcB cAA|GBB ABc|def agf|e2 A age|
fBa g2 f|edB Ade|fed eAc|B2 A cde|]
